X: 3427
T: WHY DID MY MASSA SELL ME
%R: waltz
B: James Kerr "Merry Melodies" v.3 p.48 #427
Z: 2016 John Chambers <jc:trillian.mit.edu>
M: 3/4
L: 1/4
K: C
uG |\
Gcd | (e2f) | e3 | ud2uG |\
GBc | (d2e) | d3 | c2c |\
cef | (g2a) | g3 | f2f |\
eGc | (e2d) | c3- | cz :|
|: g |\
fBd | (g2f) | eGc | (f2e) |\
dGB | (e2d) | c/B/c/d/e/c/ | G2g |\
fBd | (g2f) | eGc | (f2e) |\
dGB | (e2d) | c3- | cz :|

%%sep 1 1 500
%%sep 1 1 500

